X:1
T:On the Victory Side
T:On the Victory Side
T:John Robson Sweney
T:Frances Jane (Fanny) Crosby, 1894
T:Public Domain Courtesy of the Cyber Hymnal™
C:John Robson Sweney
Z:Public Domain
Z:Courtesy of the Cyber Hymnal™
%%score ( 1 2 ) ( 3 4 )
L:1/8
Q:1/4=100
M:4/4
K:Eb
V:1 treble 
V:2 treble 
V:3 bass 
V:4 bass 
V:1
 ([EG][FA]) | [GB]2 [GB]2 [GB]2 [Ge]>[Ge] | [Ge]4 [GB]2 [Ge]>[Ge] | [Ad]2 [Ac]2 [FA]2 [Ac]2 | %4
w: 1.~Our *|souls cry out, hal- le-|lu- jah! And our|faith en- rap- tured|
w: 2.~Our *|souls cry out, hal- le-|lu- jah! For the|Lord Him- self comes|
w: 3.~Our *|souls cry out, hal- le-|lu- jah! For the|tempt- er flies a-|
w: 4.~Our *|souls cry out, hal- le-|lu- jah! And our|hearts beat high with|
 [GB]6 [GB]>[FA] | [EG]2 [EG]>[EG] [EG]2 [FA]2 | [GB]2 [Ge]4 E>[EF] | %7
w: sings, While we|throw to the breeze the|stan- dard Of the|
w: near, And the|shout of a roy- al|ar- my On the|
w: pace, And the|chains he has forged are|break- ing, Thro’ the|
w: praise, Un- to|Him, in whose name we’ll|con- quer, And our|
 [EG]2 ([EB][FA]) [EG]2 [DF]2 | E6 ||"^Refrain" [GB]>[Ge] | [Ad]2 [DF]2 [FA]2 [AB]>[Ac] | %11
w: might- y * King of|kings.|||
w: bat- tle- * field we|hear.|||
w: power~of re- * deem- ing|grace.|||
w: song of * tri- umph|raise.|||
 [GB]2 [B,E]2 [EG]2 [EB]>[EB] | [DB]2 [FA]>[EG] [DF]2 [DB]2 | [EG]6 [EG]>[FA] | %14
w: |||
w: |||
w: |||
w: |||
 [GB]2 [Ge]2 !fermata![Ge]2 [GB]>[GB] | [Ac]2 [Ae]2 !fermata![Ae]2 E>[EF] | %16
w: ||
w: ||
w: ||
w: ||
 [EG]2 ([GB][FA]) [EG]2 [DF]2 | E6 |] %18
w: ||
w: ||
w: ||
w: ||
V:2
 x2 | x8 | x8 | x8 | x8 | x8 | x6 E3/2 x/ | x8 | E6 || x2 | x8 | x8 | x8 | x8 | x8 | x6 E3/2 x/ | %16
 x8 | E6 |] %18
V:3
 [G,B,]2 | [E,E]2 [E,E]2 [E,E]2 [E,B,]>[E,B,] | [E,B,]4 [E,E]2 [E,B,]>[E,B,] | %3
w: ~|~ ~ ~ ~ ~|~ ~ ~ ~|
 [B,,B,]2 [B,,D]2 [B,,D]2 [B,,D]2 | [E,E]6 [E,B,]>[E,B,] | [E,B,]2 [E,B,]>[E,B,] [E,B,]2 [E,B,]2 | %6
w: ~ ~ ~ ~|~ ~ ~|~ ~ ~ ~ ~|
 [E,E]2 [E,B,]4 [E,G,]>[E,A,] | [E,B,]2 ([G,B,][A,C]) B,2 [B,,A,]2 | [E,G,]6 || [E,B,]>[E,B,] | %10
w: ~ ~ ~ ~|~ ~ * ~ ~|~|On the|
 [B,,B,]2 [B,,B,]2 [B,,D]2 [B,,D]>[B,,D] | [E,E]2 [E,G,]2 [E,B,]2 [E,G,]>[E,G,] | %12
w: vic- tory side, on the|vic- tory side, In the|
 [B,,F,]2 [B,,B,]>[B,,B,] [B,,B,]2 [B,,B,]2 | [E,B,]6 [E,B,]>[E,B,] | %14
w: ranks of the Lord are|we; On the|
 [E,E]2 [E,B,]2 !fermata![E,B,]2 [D,E]>[E,E] | [A,E]2 [A,C]2 !fermata![A,C]2 [=A,C]>[A,C] | %16
w: vic- tory side we will|bold- ly stand, Till the|
 B,2 B,2 [B,,B,]2 [B,,B,]2 | [E,G,]6 |] %18
w: glo- ry land we|see.|
V:4
 x2 | x8 | x8 | x8 | x8 | x8 | x8 | x4 B,2 x2 | x6 || x2 | x8 | x8 | x8 | x8 | x8 | x8 | %16
 B,2 B,2 x4 | x6 |] %18

